images/icons/artstation.svg

<svg fill="none" height="24" viewBox="0 0 24 24" width="24" xmlns="http://www.w3.org/2000/svg"><g fill="#13aff0"><path d="m0 17.7273 2.0189 3.4934c.40832.7939 1.22496 1.3383 2.15501 1.3383h13.45179l-2.7902-4.8317z"/><path d="m24 17.7499c0-.4763-.1362-.93-.3857-1.3156l-7.8941-13.70135c-.4083-.77127-1.2023-1.29301-2.1323-1.29301h-4.17396l12.18146 21.09636 1.9282-3.3346c.3629-.6351.4764-.9073.4764-1.4518z"/><path d="m12.862 14.2792-5.42155-9.41397-5.44423 9.41397z"/></g></svg>

<svg width="24" height="24" viewBox="0 0 24 24" fill="none" xmlns="http://www.w3.org/2000/svg">
<path d="M0 17.7273L2.0189 21.2207C2.42722 22.0146 3.24386 22.559 4.17391 22.559H17.6257L14.8355 17.7273H0Z" fill="#13AFF0"/>
<path d="M24 17.7499C24 17.2736 23.8638 16.8199 23.6143 16.4343L15.7202 2.73295C15.3119 1.96168 14.5179 1.43994 13.5879 1.43994H9.41394L21.5954 22.5363L23.5236 19.2017C23.8865 18.5666 24 18.2944 24 17.7499Z" fill="#13AFF0"/>
<path d="M12.862 14.2792L7.44045 4.86523L1.99622 14.2792H12.862Z" fill="#13AFF0"/>
</svg>
